(Exported by FreeCAD)
(Post Processor: grbl_post)
(Output Time:2019-03-06 12:01:49.147309)
(begin preamble)
G17 G90
G21
(begin operation: T1: 1/8)
(Path: T1: 1/8)
(T1: 1/8)
(begin toolchange)
; M6 T1
M3 S10000.0000
(finish operation: T1: 1/8)
(begin operation: Profile_Edges)
(Path: Profile_Edges)
(Profile_Edges)
(Compensated Tool Path. Diameter: 3.17)
G0 Z1.0000
G0 X-59.5009 Y-33.8792
G1 X-59.5009 Y-33.8792 Z-3.0000 F45000.00
G2 X-60.0537 Y-36.4798 Z-3.0000 I-1.1208 J-1.1208 F45000.00
G2 X-62.1016 Y-35.5680 Z-3.0000 I-0.5680 J1.4798 F45000.00
G2 X-61.1898 Y-33.5202 Z-3.0000 I1.4798 J0.5680 F45000.00
G2 X-59.5009 Y-33.8792 Z-3.0000 I0.5680 J-1.4798 F45000.00
G1 X-59.5009 Y-33.8792 Z-6.0000 F45000.00
G2 X-60.0537 Y-36.4798 Z-6.0000 I-1.1208 J-1.1208 F45000.00
G2 X-62.1016 Y-35.5680 Z-6.0000 I-0.5680 J1.4798 F45000.00
G2 X-61.1898 Y-33.5202 Z-6.0000 I1.4798 J0.5680 F45000.00
G2 X-59.5009 Y-33.8792 Z-6.0000 I0.5680 J-1.4798 F45000.00
G1 X-59.5009 Y-33.8792 Z-9.0000 F45000.00
G2 X-60.0537 Y-36.4798 Z-9.0000 I-1.1208 J-1.1208 F45000.00
G2 X-62.1016 Y-35.5680 Z-9.0000 I-0.5680 J1.4798 F45000.00
G2 X-61.1898 Y-33.5202 Z-9.0000 I1.4798 J0.5680 F45000.00
G2 X-59.5009 Y-33.8792 Z-9.0000 I0.5680 J-1.4798 F45000.00
G1 X-59.5009 Y-33.8792 Z-12.0000 F45000.00
G2 X-60.0537 Y-36.4798 Z-12.0000 I-1.1208 J-1.1208 F45000.00
G2 X-62.1016 Y-35.5680 Z-12.0000 I-0.5680 J1.4798 F45000.00
G2 X-61.1898 Y-33.5202 Z-12.0000 I1.4798 J0.5680 F45000.00
G2 X-59.5009 Y-33.8792 Z-12.0000 I0.5680 J-1.4798 F45000.00
G1 X-59.5009 Y-33.8792 Z-13.0000 F45000.00
G2 X-60.0537 Y-36.4798 Z-13.0000 I-1.1208 J-1.1208 F45000.00
G2 X-62.1016 Y-35.5680 Z-13.0000 I-0.5680 J1.4798 F45000.00
G2 X-61.1898 Y-33.5202 Z-13.0000 I1.4798 J0.5680 F45000.00
G2 X-59.5009 Y-33.8792 Z-13.0000 I0.5680 J-1.4798 F45000.00
G0 Z1.0000
G0 X-59.5009 Y36.1208
G1 X-59.5009 Y36.1208 Z-3.0000 F45000.00
G2 X-60.2115 Y33.4689 Z-3.0000 I-1.1208 J-1.1208 F45000.00
G2 X-61.0320 Y36.5311 Z-3.0000 I-0.4103 J1.5311 F45000.00
G2 X-59.5009 Y36.1208 Z-3.0000 I0.4103 J-1.5311 F45000.00
G1 X-59.5009 Y36.1208 Z-6.0000 F45000.00
G2 X-60.2115 Y33.4689 Z-6.0000 I-1.1208 J-1.1208 F45000.00
G2 X-61.0320 Y36.5311 Z-6.0000 I-0.4103 J1.5311 F45000.00
G2 X-59.5009 Y36.1208 Z-6.0000 I0.4103 J-1.5311 F45000.00
G1 X-59.5009 Y36.1208 Z-9.0000 F45000.00
G2 X-60.2115 Y33.4689 Z-9.0000 I-1.1208 J-1.1208 F45000.00
G2 X-61.0320 Y36.5311 Z-9.0000 I-0.4103 J1.5311 F45000.00
G2 X-59.5009 Y36.1208 Z-9.0000 I0.4103 J-1.5311 F45000.00
G1 X-59.5009 Y36.1208 Z-12.0000 F45000.00
G2 X-60.2115 Y33.4689 Z-12.0000 I-1.1208 J-1.1208 F45000.00
G2 X-61.0320 Y36.5311 Z-12.0000 I-0.4103 J1.5311 F45000.00
G2 X-59.5009 Y36.1208 Z-12.0000 I0.4103 J-1.5311 F45000.00
G1 X-59.5009 Y36.1208 Z-13.0000 F45000.00
G2 X-60.2115 Y33.4689 Z-13.0000 I-1.1208 J-1.1208 F45000.00
G2 X-61.0320 Y36.5311 Z-13.0000 I-0.4103 J1.5311 F45000.00
G2 X-59.5009 Y36.1208 Z-13.0000 I0.4103 J-1.5311 F45000.00
G0 Z1.0000
G0 X1.1208 Y71.1208
G1 X1.1208 Y71.1208 Z-3.0000 F45000.00
G2 X0.4898 Y68.4925 Z-3.0000 I-1.1208 J-1.1208 F45000.00
G2 X-0.4898 Y71.5075 Z-3.0000 I-0.4898 J1.5075 F45000.00
G2 X1.1208 Y71.1208 Z-3.0000 I0.4898 J-1.5075 F45000.00
G1 X1.1208 Y71.1208 Z-6.0000 F45000.00
G2 X0.4898 Y68.4925 Z-6.0000 I-1.1208 J-1.1208 F45000.00
G2 X-0.4898 Y71.5075 Z-6.0000 I-0.4898 J1.5075 F45000.00
G2 X1.1208 Y71.1208 Z-6.0000 I0.4898 J-1.5075 F45000.00
G1 X1.1208 Y71.1208 Z-9.0000 F45000.00
G2 X0.4898 Y68.4925 Z-9.0000 I-1.1208 J-1.1208 F45000.00
G2 X-0.4898 Y71.5075 Z-9.0000 I-0.4898 J1.5075 F45000.00
G2 X1.1208 Y71.1208 Z-9.0000 I0.4898 J-1.5075 F45000.00
G1 X1.1208 Y71.1208 Z-12.0000 F45000.00
G2 X0.4898 Y68.4925 Z-12.0000 I-1.1208 J-1.1208 F45000.00
G2 X-0.4898 Y71.5075 Z-12.0000 I-0.4898 J1.5075 F45000.00
G2 X1.1208 Y71.1208 Z-12.0000 I0.4898 J-1.5075 F45000.00
G1 X1.1208 Y71.1208 Z-13.0000 F45000.00
G2 X0.4898 Y68.4925 Z-13.0000 I-1.1208 J-1.1208 F45000.00
G2 X-0.4898 Y71.5075 Z-13.0000 I-0.4898 J1.5075 F45000.00
G2 X1.1208 Y71.1208 Z-13.0000 I0.4898 J-1.5075 F45000.00
G0 Z1.0000
G0 X61.7426 Y36.1208
G1 X61.7426 Y36.1208 Z-3.0000 F45000.00
G2 X61.1898 Y33.5202 Z-3.0000 I-1.1208 J-1.1208 F45000.00
G2 X59.1420 Y34.4320 Z-3.0000 I-0.5680 J1.4798 F45000.00
G2 X60.0537 Y36.4798 Z-3.0000 I1.4798 J0.5680 F45000.00
G2 X61.7426 Y36.1208 Z-3.0000 I0.5680 J-1.4798 F45000.00
G1 X61.7426 Y36.1208 Z-6.0000 F45000.00
G2 X61.1898 Y33.5202 Z-6.0000 I-1.1208 J-1.1208 F45000.00
G2 X59.1420 Y34.4320 Z-6.0000 I-0.5680 J1.4798 F45000.00
G2 X60.0537 Y36.4798 Z-6.0000 I1.4798 J0.5680 F45000.00
G2 X61.7426 Y36.1208 Z-6.0000 I0.5680 J-1.4798 F45000.00
G1 X61.7426 Y36.1208 Z-9.0000 F45000.00
G2 X61.1898 Y33.5202 Z-9.0000 I-1.1208 J-1.1208 F45000.00
G2 X59.1420 Y34.4320 Z-9.0000 I-0.5680 J1.4798 F45000.00
G2 X60.0537 Y36.4798 Z-9.0000 I1.4798 J0.5680 F45000.00
G2 X61.7426 Y36.1208 Z-9.0000 I0.5680 J-1.4798 F45000.00
G1 X61.7426 Y36.1208 Z-12.0000 F45000.00
G2 X61.1898 Y33.5202 Z-12.0000 I-1.1208 J-1.1208 F45000.00
G2 X59.1420 Y34.4320 Z-12.0000 I-0.5680 J1.4798 F45000.00
G2 X60.0537 Y36.4798 Z-12.0000 I1.4798 J0.5680 F45000.00
G2 X61.7426 Y36.1208 Z-12.0000 I0.5680 J-1.4798 F45000.00
G1 X61.7426 Y36.1208 Z-13.0000 F45000.00
G2 X61.1898 Y33.5202 Z-13.0000 I-1.1208 J-1.1208 F45000.00
G2 X59.1420 Y34.4320 Z-13.0000 I-0.5680 J1.4798 F45000.00
G2 X60.0537 Y36.4798 Z-13.0000 I1.4798 J0.5680 F45000.00
G2 X61.7426 Y36.1208 Z-13.0000 I0.5680 J-1.4798 F45000.00
G0 Z1.0000
G0 X61.7426 Y-33.8792
G1 X61.7426 Y-33.8792 Z-3.0000 F45000.00
G2 X61.0320 Y-36.5311 Z-3.0000 I-1.1208 J-1.1208 F45000.00
G2 X60.2115 Y-33.4689 Z-3.0000 I-0.4103 J1.5311 F45000.00
G2 X61.7426 Y-33.8792 Z-3.0000 I0.4103 J-1.5311 F45000.00
G1 X61.7426 Y-33.8792 Z-6.0000 F45000.00
G2 X61.0320 Y-36.5311 Z-6.0000 I-1.1208 J-1.1208 F45000.00
G2 X60.2115 Y-33.4689 Z-6.0000 I-0.4103 J1.5311 F45000.00
G2 X61.7426 Y-33.8792 Z-6.0000 I0.4103 J-1.5311 F45000.00
G1 X61.7426 Y-33.8792 Z-9.0000 F45000.00
G2 X61.0320 Y-36.5311 Z-9.0000 I-1.1208 J-1.1208 F45000.00
G2 X60.2115 Y-33.4689 Z-9.0000 I-0.4103 J1.5311 F45000.00
G2 X61.7426 Y-33.8792 Z-9.0000 I0.4103 J-1.5311 F45000.00
G1 X61.7426 Y-33.8792 Z-12.0000 F45000.00
G2 X61.0320 Y-36.5311 Z-12.0000 I-1.1208 J-1.1208 F45000.00
G2 X60.2115 Y-33.4689 Z-12.0000 I-0.4103 J1.5311 F45000.00
G2 X61.7426 Y-33.8792 Z-12.0000 I0.4103 J-1.5311 F45000.00
G1 X61.7426 Y-33.8792 Z-13.0000 F45000.00
G2 X61.0320 Y-36.5311 Z-13.0000 I-1.1208 J-1.1208 F45000.00
G2 X60.2115 Y-33.4689 Z-13.0000 I-0.4103 J1.5311 F45000.00
G2 X61.7426 Y-33.8792 Z-13.0000 I0.4103 J-1.5311 F45000.00
G0 Z1.0000
G0 X1.1208 Y-68.8792
G1 X1.1208 Y-68.8792 Z-3.0000 F45000.00
G2 X0.4898 Y-71.5075 Z-3.0000 I-1.1208 J-1.1208 F45000.00
G2 X-0.4898 Y-68.4925 Z-3.0000 I-0.4898 J1.5075 F45000.00
G2 X1.1208 Y-68.8792 Z-3.0000 I0.4898 J-1.5075 F45000.00
G1 X1.1208 Y-68.8792 Z-6.0000 F45000.00
G2 X0.4898 Y-71.5075 Z-6.0000 I-1.1208 J-1.1208 F45000.00
G2 X-0.4898 Y-68.4925 Z-6.0000 I-0.4898 J1.5075 F45000.00
G2 X1.1208 Y-68.8792 Z-6.0000 I0.4898 J-1.5075 F45000.00
G1 X1.1208 Y-68.8792 Z-9.0000 F45000.00
G2 X0.4898 Y-71.5075 Z-9.0000 I-1.1208 J-1.1208 F45000.00
G2 X-0.4898 Y-68.4925 Z-9.0000 I-0.4898 J1.5075 F45000.00
G2 X1.1208 Y-68.8792 Z-9.0000 I0.4898 J-1.5075 F45000.00
G1 X1.1208 Y-68.8792 Z-12.0000 F45000.00
G2 X0.4898 Y-71.5075 Z-12.0000 I-1.1208 J-1.1208 F45000.00
G2 X-0.4898 Y-68.4925 Z-12.0000 I-0.4898 J1.5075 F45000.00
G2 X1.1208 Y-68.8792 Z-12.0000 I0.4898 J-1.5075 F45000.00
G1 X1.1208 Y-68.8792 Z-13.0000 F45000.00
G2 X0.4898 Y-71.5075 Z-13.0000 I-1.1208 J-1.1208 F45000.00
G2 X-0.4898 Y-68.4925 Z-13.0000 I-0.4898 J1.5075 F45000.00
G2 X1.1208 Y-68.8792 Z-13.0000 I0.4898 J-1.5075 F45000.00
G0 Z1.0000
(finish operation: Profile_Edges)
(begin operation: Pocket_Shape)
(Path: Pocket_Shape)
(Pocket_Shape)
G0 Z1.0000
G0 X-42.2348 Y2.7672
G1 X-42.2348 Y2.7672 Z-3.1700 F45000.00
G2 X-45.0445 Y-3.9150 Z-3.1700 I-2.7667 J-2.7685 F45000.00
G1 X-69.9539 Y-3.9150 Z-3.1700 F45000.00
G1 X-70.4542 Y-3.8859 Z-3.1700 F45000.00
G2 X-69.9539 Y3.9150 Z-3.1700 I0.4558 J3.8872 F45000.00
G1 X-45.0445 Y3.9150 Z-3.1700 F45000.00
G1 X-44.5619 Y3.8879 Z-3.1700 F45000.00
G2 X-42.2348 Y2.7672 Z-3.1700 I-0.4395 J-3.8892 F45000.00
G0 X-42.2348 Y2.7672 Z1.0000
G0 X-44.4822 Y0.5207 Z1.0000
G0 X-44.4822 Y0.5207 Z-2.1700
G1 X-44.4822 Y0.5207 Z-3.1700 F45000.00
G2 X-45.1334 Y-0.7450 Z-3.1700 I-0.5286 J-0.5284 F45000.00
G1 X-69.8616 Y-0.7450 Z-3.1700 F45000.00
G2 X-70.1700 Y-0.7171 Z-3.1700 I-0.0347 J1.3328 F45000.00
G2 X-69.8616 Y0.7450 Z-3.1700 I0.1811 J0.7254 F45000.00
G1 X-45.1334 Y0.7450 Z-3.1700 F45000.00
G2 X-44.8359 Y0.7190 Z-3.1700 I0.0335 J-1.3333 F45000.00
G2 X-44.4822 Y0.5207 Z-3.1700 I-0.1749 J-0.7267 F45000.00
G1 X-44.4822 Y0.5207 Z-5.0000 F45000.00
G2 X-45.1334 Y-0.7450 Z-5.0000 I-0.5286 J-0.5284 F45000.00
G1 X-69.8616 Y-0.7450 Z-5.0000 F45000.00
G2 X-70.1700 Y-0.7171 Z-5.0000 I-0.0347 J1.3328 F45000.00
G2 X-69.8616 Y0.7450 Z-5.0000 I0.1811 J0.7254 F45000.00
G1 X-45.1334 Y0.7450 Z-5.0000 F45000.00
G2 X-44.8359 Y0.7190 Z-5.0000 I0.0335 J-1.3333 F45000.00
G2 X-44.4822 Y0.5207 Z-5.0000 I-0.1749 J-0.7267 F45000.00
G0 X-44.4822 Y0.5207 Z1.0000
G0 X-42.2412 Y2.7736 Z1.0000
G0 X-42.2412 Y2.7736 Z-4.0000
G1 X-42.2412 Y2.7736 Z-5.0000 F45000.00
G2 X-45.0445 Y-3.9150 Z-5.0000 I-2.7602 J-2.7749 F45000.00
G1 X-69.9539 Y-3.9150 Z-5.0000 F45000.00
G1 X-70.4542 Y-3.8859 Z-5.0000 F45000.00
G2 X-69.9539 Y3.9150 Z-5.0000 I0.4558 J3.8872 F45000.00
G1 X-45.0445 Y3.9150 Z-5.0000 F45000.00
G1 X-44.5619 Y3.8879 Z-5.0000 F45000.00
G2 X-42.2412 Y2.7736 Z-5.0000 I-0.4395 J-3.8892 F45000.00
G0 Z1.0000
G0 X-29.2009 Y58.4074
G1 X-29.2009 Y58.4074 Z-3.1700 F45000.00
G1 X-19.1317 Y40.9672 Z-3.1700 F45000.00
G2 X-18.6557 Y39.6985 Z-3.1700 I-3.4953 J-2.0352 F45000.00
G2 X-25.9127 Y37.0522 Z-3.1700 I-3.8461 J-0.7264 F45000.00
G1 X-38.3674 Y58.6243 Z-3.1700 F45000.00
G1 X-38.5923 Y59.0722 Z-3.1700 F45000.00
G2 X-31.5865 Y62.5393 Z-3.1700 I3.5944 J1.5489 F45000.00
G1 X-29.2009 Y58.4074 Z-3.1700 F45000.00
G0 X-29.2009 Y58.4074 Z1.0000
G0 X-31.9462 Y56.8224 Z1.0000
G0 X-31.9462 Y56.8224 Z-2.1700
G1 X-31.9462 Y56.8224 Z-3.1700 F45000.00
G1 X-21.9215 Y39.4592 Z-3.1700 F45000.00
G2 X-21.7753 Y39.1083 Z-3.1700 I-0.9596 J-0.6056 F45000.00
G2 X-23.2119 Y38.7142 Z-3.1700 I-0.7364 J-0.1309 F45000.00
G1 X-35.5760 Y60.1295 Z-3.1700 F45000.00
G2 X-35.7060 Y60.4104 Z-3.1700 I1.1369 J0.6965 F45000.00
G2 X-34.2856 Y60.8745 Z-3.1700 I0.7187 J0.2059 F45000.00
G1 X-31.9462 Y56.8224 Z-3.1700 F45000.00
G1 X-31.9462 Y56.8224 Z-5.0000 F45000.00
G1 X-21.9215 Y39.4592 Z-5.0000 F45000.00
G2 X-21.7753 Y39.1083 Z-5.0000 I-0.9596 J-0.6056 F45000.00
G2 X-23.2119 Y38.7142 Z-5.0000 I-0.7364 J-0.1309 F45000.00
G1 X-35.5760 Y60.1295 Z-5.0000 F45000.00
G2 X-35.7060 Y60.4104 Z-5.0000 I1.1369 J0.6965 F45000.00
G2 X-34.2856 Y60.8745 Z-5.0000 I0.7187 J0.2059 F45000.00
G1 X-31.9462 Y56.8224 Z-5.0000 F45000.00
G0 X-31.9462 Y56.8224 Z1.0000
G0 X-29.2009 Y58.4074 Z1.0000
G0 X-29.2009 Y58.4074 Z-4.0000
G1 X-29.2009 Y58.4074 Z-5.0000 F45000.00
G1 X-19.1317 Y40.9672 Z-5.0000 F45000.00
G2 X-18.6557 Y39.6985 Z-5.0000 I-3.4953 J-2.0352 F45000.00
G2 X-25.9127 Y37.0522 Z-5.0000 I-3.8461 J-0.7264 F45000.00
G1 X-38.3674 Y58.6243 Z-5.0000 F45000.00
G1 X-38.5923 Y59.0722 Z-5.0000 F45000.00
G2 X-31.5865 Y62.5393 Z-5.0000 I3.5944 J1.5489 F45000.00
G1 X-29.2009 Y58.4074 Z-5.0000 F45000.00
G0 Z1.0000
G0 X37.7679 Y63.3872
G1 X37.7679 Y63.3872 Z-3.1700 F45000.00
G2 X38.3674 Y58.6243 Z-3.1700 I-2.7675 J-2.7675 F45000.00
G1 X25.9127 Y37.0522 Z-3.1700 F45000.00
G2 X23.5126 Y35.1920 Z-3.1700 I-3.4223 J1.9372 F45000.00
G2 X19.1317 Y40.9672 Z-3.1700 I-1.0119 J3.7816 F45000.00
G1 X31.5865 Y62.5393 Z-3.1700 F45000.00
G1 X31.8618 Y62.9581 Z-3.1700 F45000.00
G2 X37.7679 Y63.3872 Z-3.1700 I3.1385 J-2.3384 F45000.00
G0 X37.7679 Y63.3872 Z1.0000
G0 X35.5290 Y61.1379 Z1.0000
G0 X35.5290 Y61.1379 Z-2.1700
G1 X35.5290 Y61.1379 Z-3.1700 F45000.00
G2 X35.5760 Y60.1295 Z-3.1700 I-0.5274 J-0.5299 F45000.00
G1 X23.2119 Y38.7142 Z-3.1700 F45000.00
G2 X22.6909 Y38.2588 Z-3.1700 I-0.7543 J0.3372 F45000.00
G2 X21.9215 Y39.4592 Z-3.1700 I-0.1863 J0.7274 F45000.00
G1 X34.2856 Y60.8745 Z-3.1700 F45000.00
G2 X34.4640 Y61.1275 Z-3.1700 I1.1716 J-0.6364 F45000.00
G2 X35.5290 Y61.1379 Z-3.1700 I0.5376 J-0.5195 F45000.00
G1 X35.5290 Y61.1379 Z-5.0000 F45000.00
G2 X35.5760 Y60.1295 Z-5.0000 I-0.5274 J-0.5299 F45000.00
G1 X23.2119 Y38.7142 Z-5.0000 F45000.00
G2 X22.6909 Y38.2588 Z-5.0000 I-0.7543 J0.3372 F45000.00
G2 X21.9215 Y39.4592 Z-5.0000 I-0.1863 J0.7274 F45000.00
G1 X34.2856 Y60.8745 Z-5.0000 F45000.00
G2 X34.4640 Y61.1275 Z-5.0000 I1.1716 J-0.6364 F45000.00
G2 X35.5290 Y61.1379 Z-5.0000 I0.5376 J-0.5195 F45000.00
G0 X35.5290 Y61.1379 Z1.0000
G0 X37.7954 Y63.3594 Z1.0000
G0 X37.7954 Y63.3594 Z-4.0000
G1 X37.7954 Y63.3594 Z-5.0000 F45000.00
G2 X38.3674 Y58.6243 Z-5.0000 I-2.7950 J-2.7398 F45000.00
G1 X25.9127 Y37.0522 Z-5.0000 F45000.00
G2 X23.5126 Y35.1920 Z-5.0000 I-3.4223 J1.9372 F45000.00
G2 X19.1317 Y40.9672 Z-5.0000 I-1.0119 J3.7816 F45000.00
G1 X31.5865 Y62.5393 Z-5.0000 F45000.00
G1 X31.8618 Y62.9581 Z-5.0000 F45000.00
G2 X37.7954 Y63.3594 Z-5.0000 I3.1385 J-2.3384 F45000.00
G0 Z1.0000
G0 X72.7649 Y2.7671
G1 X72.7649 Y2.7671 Z-3.1700 F45000.00
G2 X69.9539 Y-3.9150 Z-3.1700 I-2.7666 J-2.7685 F45000.00
G1 X45.0461 Y-3.9150 Z-3.1700 F45000.00
G1 X44.5458 Y-3.8859 Z-3.1700 F45000.00
G2 X45.0461 Y3.9150 Z-3.1700 I0.4558 J3.8872 F45000.00
G1 X69.9539 Y3.9150 Z-3.1700 F45000.00
G1 X70.4542 Y3.8859 Z-3.1700 F45000.00
G2 X72.7649 Y2.7671 Z-3.1700 I-0.4558 J-3.8872 F45000.00
G0 X72.7649 Y2.7671 Z1.0000
G0 X70.5176 Y0.5203 Z1.0000
G0 X70.5176 Y0.5203 Z-2.1700
G1 X70.5176 Y0.5203 Z-3.1700 F45000.00
G2 X69.8616 Y-0.7450 Z-3.1700 I-0.5287 J-0.5286 F45000.00
G1 X45.1384 Y-0.7450 Z-3.1700 F45000.00
G2 X44.8300 Y-0.7171 Z-3.1700 I-0.0347 J1.3328 F45000.00
G2 X45.1384 Y0.7450 Z-3.1700 I0.1811 J0.7254 F45000.00
G1 X69.8616 Y0.7450 Z-3.1700 F45000.00
G2 X70.1700 Y0.7171 Z-3.1700 I0.0347 J-1.3328 F45000.00
G2 X70.5176 Y0.5203 Z-3.1700 I-0.1811 J-0.7254 F45000.00
G1 X70.5176 Y0.5203 Z-5.0000 F45000.00
G2 X69.8616 Y-0.7450 Z-5.0000 I-0.5287 J-0.5286 F45000.00
G1 X45.1384 Y-0.7450 Z-5.0000 F45000.00
G2 X44.8300 Y-0.7171 Z-5.0000 I-0.0347 J1.3328 F45000.00
G2 X45.1384 Y0.7450 Z-5.0000 I0.1811 J0.7254 F45000.00
G1 X69.8616 Y0.7450 Z-5.0000 F45000.00
G2 X70.1700 Y0.7171 Z-5.0000 I0.0347 J-1.3328 F45000.00
G2 X70.5176 Y0.5203 Z-5.0000 I-0.1811 J-0.7254 F45000.00
G0 X70.5176 Y0.5203 Z1.0000
G0 X72.7593 Y2.7727 Z1.0000
G0 X72.7593 Y2.7727 Z-4.0000
G1 X72.7593 Y2.7727 Z-5.0000 F45000.00
G2 X69.9539 Y-3.9150 Z-5.0000 I-2.7610 J-2.7741 F45000.00
G1 X45.0461 Y-3.9150 Z-5.0000 F45000.00
G1 X44.5458 Y-3.8859 Z-5.0000 F45000.00
G2 X45.0461 Y3.9150 Z-5.0000 I0.4558 J3.8872 F45000.00
G1 X69.9539 Y3.9150 Z-5.0000 F45000.00
G1 X70.4542 Y3.8859 Z-5.0000 F45000.00
G2 X72.7593 Y2.7727 Z-5.0000 I-0.4558 J-3.8872 F45000.00
G0 Z1.0000
G0 X28.2993 Y-41.1858
G1 X28.2993 Y-41.1858 Z-3.1700 F45000.00
G1 X38.3674 Y-58.6243 Z-3.1700 F45000.00
G2 X35.9022 Y-64.4286 Z-3.1700 I-3.3700 J-1.9943 F45000.00
G2 X31.5865 Y-62.5393 Z-3.1700 I-0.9018 J3.8139 F45000.00
G1 X19.1317 Y-40.9672 Z-3.1700 F45000.00
G1 X18.9139 Y-40.5357 Z-3.1700 F45000.00
G2 X25.9127 Y-37.0522 Z-3.1700 I3.5879 J1.5640 F45000.00
G1 X28.2993 Y-41.1858 Z-3.1700 F45000.00
G0 X28.2993 Y-41.1858 Z1.0000
G0 X25.5540 Y-42.7708 Z1.0000
G0 X25.5540 Y-42.7708 Z-2.1700
G1 X25.5540 Y-42.7708 Z-3.1700 F45000.00
G1 X35.5760 Y-60.1295 Z-3.1700 F45000.00
G2 X35.1699 Y-61.3389 Z-3.1700 I-0.5910 J-0.4744 F45000.00
G2 X34.2856 Y-60.8745 Z-3.1700 I-0.1678 J0.7547 F45000.00
G1 X21.9215 Y-39.4592 Z-3.1700 F45000.00
G2 X21.7953 Y-39.1885 Z-3.1700 I1.1379 J0.6956 F45000.00
G2 X23.2119 Y-38.7142 Z-3.1700 I0.7168 J0.2119 F45000.00
G1 X25.5540 Y-42.7708 Z-3.1700 F45000.00
G1 X25.5540 Y-42.7708 Z-5.0000 F45000.00
G1 X35.5760 Y-60.1295 Z-5.0000 F45000.00
G2 X35.1699 Y-61.3389 Z-5.0000 I-0.5910 J-0.4744 F45000.00
G2 X34.2856 Y-60.8745 Z-5.0000 I-0.1678 J0.7547 F45000.00
G1 X21.9215 Y-39.4592 Z-5.0000 F45000.00
G2 X21.7953 Y-39.1885 Z-5.0000 I1.1379 J0.6956 F45000.00
G2 X23.2119 Y-38.7142 Z-5.0000 I0.7168 J0.2119 F45000.00
G1 X25.5540 Y-42.7708 Z-5.0000 F45000.00
G0 X25.5540 Y-42.7708 Z1.0000
G0 X28.2993 Y-41.1858 Z1.0000
G0 X28.2993 Y-41.1858 Z-4.0000
G1 X28.2993 Y-41.1858 Z-5.0000 F45000.00
G1 X38.3674 Y-58.6243 Z-5.0000 F45000.00
G2 X35.9022 Y-64.4286 Z-5.0000 I-3.3700 J-1.9943 F45000.00
G2 X31.5865 Y-62.5393 Z-5.0000 I-0.9018 J3.8139 F45000.00
G1 X19.1317 Y-40.9672 Z-5.0000 F45000.00
G1 X18.9139 Y-40.5357 Z-5.0000 F45000.00
G2 X25.9127 Y-37.0522 Z-5.0000 I3.5879 J1.5640 F45000.00
G1 X28.2993 Y-41.1858 Z-5.0000 F45000.00
G0 Z1.0000
G0 X-19.7320 Y-36.2055
G1 X-19.7320 Y-36.2055 Z-3.1700 F45000.00
G2 X-19.1317 Y-40.9672 Z-3.1700 I-2.7676 J-2.7676 F45000.00
G1 X-31.5865 Y-62.5393 Z-3.1700 F45000.00
G2 X-34.0978 Y-64.4286 Z-3.1700 I-3.4228 J1.9360 F45000.00
G2 X-38.3674 Y-58.6243 Z-3.1700 I-0.9013 J3.8096 F45000.00
G1 X-25.9127 Y-37.0522 Z-3.1700 F45000.00
G1 X-25.6480 Y-36.6478 Z-3.1700 F45000.00
G2 X-19.7320 Y-36.2055 Z-3.1700 I3.1484 J-2.3252 F45000.00
G0 X-19.7320 Y-36.2055 Z1.0000
G0 X-21.9714 Y-38.4547 Z1.0000
G0 X-21.9714 Y-38.4547 Z-2.1700
G1 X-21.9714 Y-38.4547 Z-3.1700 F45000.00
G2 X-21.9215 Y-39.4592 Z-3.1700 I-0.5274 J-0.5297 F45000.00
G1 X-34.2856 Y-60.8745 Z-3.1700 F45000.00
G2 X-34.8301 Y-61.3389 Z-3.1700 I-0.7552 J0.3341 F45000.00
G2 X-35.5760 Y-60.1295 Z-3.1700 I-0.1639 J0.7336 F45000.00
G1 X-23.2119 Y-38.7142 Z-3.1700 F45000.00
G2 X-23.0406 Y-38.4695 Z-3.1700 I1.1714 J-0.6377 F45000.00
G2 X-21.9714 Y-38.4547 Z-3.1700 I0.5419 J-0.5148 F45000.00
G1 X-21.9714 Y-38.4547 Z-5.0000 F45000.00
G2 X-21.9215 Y-39.4592 Z-5.0000 I-0.5274 J-0.5297 F45000.00
G1 X-34.2856 Y-60.8745 Z-5.0000 F45000.00
G2 X-34.8301 Y-61.3389 Z-5.0000 I-0.7552 J0.3341 F45000.00
G2 X-35.5760 Y-60.1295 Z-5.0000 I-0.1639 J0.7336 F45000.00
G1 X-23.2119 Y-38.7142 Z-5.0000 F45000.00
G2 X-23.0406 Y-38.4695 Z-5.0000 I1.1714 J-0.6377 F45000.00
G2 X-21.9714 Y-38.4547 Z-5.0000 I0.5419 J-0.5148 F45000.00
G0 X-21.9714 Y-38.4547 Z1.0000
G0 X-19.7061 Y-36.2316 Z1.0000
G0 X-19.7061 Y-36.2316 Z-4.0000
G1 X-19.7061 Y-36.2316 Z-5.0000 F45000.00
G2 X-19.1317 Y-40.9672 Z-5.0000 I-2.7935 J-2.7414 F45000.00
G1 X-31.5865 Y-62.5393 Z-5.0000 F45000.00
G2 X-34.0978 Y-64.4286 Z-5.0000 I-3.4228 J1.9360 F45000.00
G2 X-38.3674 Y-58.6243 Z-5.0000 I-0.9013 J3.8096 F45000.00
G1 X-25.9127 Y-37.0522 Z-5.0000 F45000.00
G1 X-25.6480 Y-36.6478 Z-5.0000 F45000.00
G2 X-19.7061 Y-36.2316 Z-5.0000 I3.1484 J-2.3252 F45000.00
G0 Z1.0000
(finish operation: Pocket_Shape)
(begin operation: Pocket_Shape001)
(Path: Pocket_Shape001)
(Pocket_Shape001)
G0 Z1.0000
G0 X20.2689 Y20.2689
G1 X20.2689 Y20.2689 Z-3.1700 F45000.00
G2 X2.8999 Y-28.5174 Z-3.1700 I-20.2689 J-20.2689 F45000.00
G2 X-2.8999 Y28.5174 Z-3.1700 I-2.8999 J28.5174 F45000.00
G2 X20.2689 Y20.2689 Z-3.1700 I2.8999 J-28.5174 F45000.00
G0 X20.2689 Y20.2689 Z1.0000
G0 X19.5051 Y19.5051 Z1.0000
G0 X19.5051 Y19.5051 Z-2.1700
G1 X19.5051 Y19.5051 Z-3.1700 F45000.00
G2 X-2.3214 Y-27.4866 Z-3.1700 I-19.5051 J-19.5051 F45000.00
G2 X-27.4866 Y2.3214 Z-3.1700 I2.3214 J27.4866 F45000.00
G2 X2.3214 Y27.4866 Z-3.1700 I27.4866 J-2.3214 F45000.00
G2 X19.5051 Y19.5051 Z-3.1700 I-2.3214 J-27.4866 F45000.00
G1 X19.5051 Y19.5051 Z-6.0000 F45000.00
G2 X-2.3214 Y-27.4866 Z-6.0000 I-19.5051 J-19.5051 F45000.00
G2 X-27.4866 Y2.3214 Z-6.0000 I2.3214 J27.4866 F45000.00
G2 X2.3214 Y27.4866 Z-6.0000 I27.4866 J-2.3214 F45000.00
G2 X19.5051 Y19.5051 Z-6.0000 I-2.3214 J-27.4866 F45000.00
G0 X19.5051 Y19.5051 Z1.0000
G0 X20.2689 Y20.2689 Z1.0000
G0 X20.2689 Y20.2689 Z-5.0000
G1 X20.2689 Y20.2689 Z-6.0000 F45000.00
G2 X2.8999 Y-28.5174 Z-6.0000 I-20.2689 J-20.2689 F45000.00
G2 X-2.8999 Y28.5174 Z-6.0000 I-2.8999 J28.5174 F45000.00
G2 X20.2689 Y20.2689 Z-6.0000 I2.8999 J-28.5174 F45000.00
G0 Z1.0000
(finish operation: Pocket_Shape001)
(begin operation: Profile_Edges001)
(Path: Profile_Edges001)
(Profile_Edges001)
(Compensated Tool Path. Diameter: 3.17)
G0 Z1.0000
G0 X5.9492 Y5.9492
G1 X5.9492 Y5.9492 Z-3.1700 F45000.00
G2 X8.2857 Y1.4610 Z-3.1700 I-5.9492 J-5.9492 F45000.00
G2 X-8.2857 Y-1.4610 Z-3.1700 I-8.2857 J-1.4610 F45000.00
G2 X5.9492 Y5.9492 Z-3.1700 I8.2857 J1.4610 F45000.00
G1 X5.9492 Y5.9492 Z-6.3400 F45000.00
G2 X8.2857 Y1.4610 Z-6.3400 I-5.9492 J-5.9492 F45000.00
G2 X-8.2857 Y-1.4610 Z-6.3400 I-8.2857 J-1.4610 F45000.00
G2 X5.9492 Y5.9492 Z-6.3400 I8.2857 J1.4610 F45000.00
G1 X5.9492 Y5.9492 Z-9.5100 F45000.00
G2 X8.2857 Y1.4610 Z-9.5100 I-5.9492 J-5.9492 F45000.00
G2 X-8.2857 Y-1.4610 Z-9.5100 I-8.2857 J-1.4610 F45000.00
G2 X5.9492 Y5.9492 Z-9.5100 I8.2857 J1.4610 F45000.00
G1 X5.9492 Y5.9492 Z-12.6800 F45000.00
G2 X8.2857 Y1.4610 Z-12.6800 I-5.9492 J-5.9492 F45000.00
G2 X-8.2857 Y-1.4610 Z-12.6800 I-8.2857 J-1.4610 F45000.00
G2 X5.9492 Y5.9492 Z-12.6800 I8.2857 J1.4610 F45000.00
G1 X5.9492 Y5.9492 Z-13.0000 F45000.00
G2 X8.2857 Y1.4610 Z-13.0000 I-5.9492 J-5.9492 F45000.00
G2 X-8.2857 Y-1.4610 Z-13.0000 I-8.2857 J-1.4610 F45000.00
G2 X5.9492 Y5.9492 Z-13.0000 I8.2857 J1.4610 F45000.00
G0 Z1.0000
(finish operation: Profile_Edges001)
(begin operation: Contour)
(Path: Contour)
(Contour)
(Compensated Tool Path. Diameter: 3.17)
G0 Z1.0000
G0 X59.4923 Y59.4923
G1 X59.4923 Y59.4923 Z-2.7500 F45000.00
G2 X84.0433 Y3.9228 Z-2.7500 I-59.4923 J-59.4923 F45000.00
G2 X-84.0433 Y-3.9228 Z-2.7500 I-84.0433 J-3.9228 F45000.00
G2 X59.4923 Y59.4923 Z-2.7500 I84.0433 J3.9228 F45000.00
G1 X59.4923 Y59.4923 Z-5.5000 F45000.00
G2 X84.0433 Y3.9228 Z-5.5000 I-59.4923 J-59.4923 F45000.00
G2 X-84.0433 Y-3.9228 Z-5.5000 I-84.0433 J-3.9228 F45000.00
G2 X59.4923 Y59.4923 Z-5.5000 I84.0433 J3.9228 F45000.00
G1 X59.4923 Y59.4923 Z-8.2500 F45000.00
G2 X84.0433 Y3.9228 Z-8.2500 I-59.4923 J-59.4923 F45000.00
G2 X-84.0433 Y-3.9228 Z-8.2500 I-84.0433 J-3.9228 F45000.00
G2 X59.4923 Y59.4923 Z-8.2500 I84.0433 J3.9228 F45000.00
G1 X59.4923 Y59.4923 Z-11.0000 F45000.00
G2 X84.0433 Y3.9228 Z-11.0000 I-59.4923 J-59.4923 F45000.00
G2 X-84.0433 Y-3.9228 Z-11.0000 I-84.0433 J-3.9228 F45000.00
G2 X59.4923 Y59.4923 Z-11.0000 I84.0433 J3.9228 F45000.00
G1 X59.4923 Y59.4923 Z-13.0000 F45000.00
G2 X84.0433 Y3.9228 Z-13.0000 I-59.4923 J-59.4923 F45000.00
G2 X-84.0433 Y-3.9228 Z-13.0000 I-84.0433 J-3.9228 F45000.00
G2 X59.4923 Y59.4923 Z-13.0000 I84.0433 J3.9228 F45000.00
G0 Z1.0000
(finish operation: Contour)
(begin postamble)
M5
G17 G90
; M2
